X:537
T:A song about envy
C:anon.
O:Romania
Z:Transcribed by Frank Nordberg - http://www.musicaviva.com
F:http://abc.musicaviva.com/tunes/romania/a-song-about-envy.abc
M:6/8
L:1/8
Q:1/4=62
K:Gdor
Gdc dBG|\
M:5/4
dc BFG2G4|\
M:6/8
def gfe|def edc|\
M:5/4
de fag2d4|\
M:6/8
daa gfd|\
M:5/4
gf dcB2G4|\
M:6/8
GFc dBG|\
M:5/4
FF BcG2G4|]
W:
W:
W:  From Musica Viva - http://www.musicaviva.com
W:  the Internet center for free sheet music downloads.

